X: 60
T: Liaokuo de caoyuan
%%abc-version 2.0
%%abcx-abcm2ps-target-version 5.9.1 (29 Sep 2008)
%%abc-creator hum2abc beta
%%abcx-conversion-date 2013/10/02 07:44:27
%%abc-edited-by Helmut Schaffrath
%%humdrum-veritas 4183593565
%%humdrum-veritas-data 282056267
%%continueall 1
%%barnumbers 0
L: 1/8
M: 4/4
K: C
A2>d2 c e [I:setbarnb 1]| 
d3(3c/ d/ c/ A d | 
c A/ G/ F G A d | 
c4A d | 
cC2D C z | 
D F/ G/c4 | 
d4-d f | 
F A/ G/ GF2D/ C/ | 
A, C/ D/G3c | 
F D G FD2 |]  



